X: 4
P: Polska efter Olof Olsson
O: F\"ollinge
N: Same tune as "Norskleitjen"
D: Mats & Ulf Andersson "L\aatar fr\aan F\"ollingetrakten i J\"amtland"
M: 9/16
L: 1/16
K: A
|:"A"A3  c2A "E7"B2G | "A"A3 c2e a3 | "A"A3  c2A "E7"B2G | "A"A3 c2A E3 |
| "A"A2A cAc "E7"BGB | "A"A3 c2e a3-| "A"a2A cAc "E7"BGB |   ABc "A"A6 :|
|:"A"A2c c2e e3- | efg a2e c2A |  "D"A2d d2f f3- | f2g a2f "A"e2c |
| "A"A2c c2e e3- | efg aed c2B | "E7"ABc dBd cAc | BGB "A"A6 :|
